X:53
T:Craig's Pipes
Z: id:dc-reel-48
M:C
L:1/8
K:G Major
B3A BAGA|B2GB AGED|B3A BAGB|AcBG AGED|!
B3A BAGA|B2GB AGED|Bded BcdB|AcBG AGEG|]!
DGG2 DGBG|DGBG AGEG|DGGF GABc|[1 dBAc BGGE:|[2 dBAc BGGB|]!
d2Bd efge|dGBG AGEG|d2Bd efg2|[1 a2ba ageg:|[2 a2ba aged|]!

